src/images/active/econometrics_icon_active.svg

<svg width="25" height="25" viewBox="0 0 25 25" fill="none" xmlns="http://www.w3.org/2000/svg">
<g clip-path="url(#clip0_20_717)">
<path d="M4.81137 16.6678C5.06276 16.8174 5.27861 17.0121 5.45086 17.2371H8.70602V14.0806L7.16251 13.1236C6.81875 12.9105 6.71285 12.459 6.92596 12.1153C7.13913 11.7716 7.5904 11.6657 7.93432 11.8787L9.43838 12.8112L10.7494 11.9984C8.13449 8.41283 8.73502 3.33221 12.2157 0.464604C6.48226 -1.45611 0.46783 2.8135 0.440684 8.94559C0.426525 12.1976 2.15786 15.0882 4.81137 16.6678Z" fill="#1814f3"/>
<path d="M5.90887 18.7018H12.8418V20.3618H5.90887V18.7018Z" fill="#1814f3"/>
<path d="M10.1707 14.0806V17.237H13.29C13.4556 17.0185 13.6623 16.8312 13.9027 16.6896C14.5684 16.2978 15.1795 15.8199 15.7211 15.273C14.1912 14.9285 12.8173 14.1677 11.7248 13.1163C11.6831 13.1434 11.3829 13.3291 10.1707 14.0806Z" fill="#1814f3"/>
<path d="M17.5777 0.00238037C13.7374 0.00238037 10.5959 3.17576 10.5959 7.03297C10.5959 10.6611 13.3811 13.6655 16.9522 13.9861C21.0849 14.3554 24.5595 11.0793 24.5595 7.03297C24.5595 3.18323 21.4275 0.00238037 17.5777 0.00238037ZM18.311 10.2073V10.3603C18.311 10.7648 17.9831 11.0927 17.5787 11.0927C17.1742 11.0927 16.8463 10.7648 16.8463 10.3603V10.2901C16.5089 10.2309 16.2006 10.1046 15.8112 9.84984C15.4727 9.62843 15.3778 9.17456 15.5992 8.83607C15.8206 8.49753 16.2746 8.40271 16.613 8.62408C16.97 8.85765 17.0857 8.87586 17.5737 8.87249C18.0449 8.86937 18.2326 8.49953 18.2692 8.28153C18.3022 8.0858 18.2652 7.82557 17.9022 7.69731C17.2942 7.48234 16.6707 7.23568 16.229 6.88923C15.2231 6.10034 15.5268 4.29851 16.8464 3.81901V3.71297C16.8464 3.30851 17.1743 2.98062 17.5787 2.98062C17.9832 2.98062 18.3111 3.30851 18.3111 3.71297V3.75359C18.6719 3.85543 18.9625 4.03965 19.1622 4.24265C19.4458 4.53101 19.4419 4.99468 19.1535 5.2783C18.8653 5.56177 18.4019 5.55801 18.1184 5.27015C18.0775 5.23026 17.8519 5.04214 17.3635 5.18925C17.1685 5.24798 17.1161 5.45021 17.1047 5.5108C17.0808 5.63725 17.1148 5.7225 17.1329 5.73675C17.4092 5.95343 17.9236 6.15131 18.3904 6.31634C20.3206 6.9986 20.0855 9.56578 18.311 10.2073Z" fill="#1814f3"/>
<path d="M7.08064 22.7053C7.08064 23.9706 8.11004 25 9.37535 25C10.6407 25 11.6701 23.9706 11.6701 22.7053V21.8265H7.08064V22.7053Z" fill="#1814f3"/>
</g>
<defs>
<clipPath id="clip0_20_717">
<rect width="25" height="25" fill="white"/>
</clipPath>
</defs>
</svg>

<svg xmlns="http://www.w3.org/2000/svg" width="25" height="25" fill="none"><g fill="#1814f3" clip-path="url(#a)"><path d="M4.811 16.668c.252.15.468.344.64.57h3.255V14.08l-1.543-.957a.732.732 0 1 1 .771-1.245l1.504.932 1.311-.813C8.134 8.413 8.735 3.332 12.216.465 6.482-1.456.468 2.814.44 8.945a8.933 8.933 0 0 0 4.37 7.723ZM5.909 18.702h6.933v1.66H5.909v-1.66ZM10.17 14.08v3.157h3.12a2.12 2.12 0 0 1 .613-.547 8.954 8.954 0 0 0 1.818-1.417 8.439 8.439 0 0 1-3.996-2.157l-1.554.965Z"/><path d="M17.578.002c-3.84 0-6.982 3.174-6.982 7.031 0 3.628 2.785 6.632 6.356 6.953 4.133.37 7.607-2.907 7.607-6.953 0-3.85-3.132-7.03-6.981-7.03Zm.733 10.205v.153a.732.732 0 1 1-1.465 0v-.07c-.337-.06-.645-.185-1.035-.44a.732.732 0 1 1 .802-1.226c.357.234.473.252.96.248.472-.003.66-.372.696-.59.033-.196-.004-.456-.367-.585-.608-.215-1.231-.461-1.673-.808-1.006-.789-.702-2.59.617-3.07v-.106a.732.732 0 0 1 1.465 0v.04c.36.102.651.287.851.49a.732.732 0 0 1-1.044 1.027c-.04-.04-.266-.228-.755-.08-.194.058-.247.26-.258.32-.024.127.01.213.028.227.276.216.79.414 1.257.58 1.93.682 1.695 3.249-.079 3.89ZM7.08 22.705A2.297 2.297 0 0 0 9.376 25a2.297 2.297 0 0 0 2.295-2.295v-.878H7.08v.878Z"/></g><defs><clipPath id="a"><path fill="#fff" d="M0 0h25v25H0z"/></clipPath></defs></svg>
